X:284
T:Kenmure's Up An'Awa 
C:Joe Buchanan's Scottish Tome - Page 322.5
I:322 5
R:Jig
Z:Carl Allison
L:1/8
M:6/8
K:A
c/B/ | Ace aec | efe e2 c | Ace aec | BcB B2 A | Ae aec | efg agf | edc dcB | ABA A2 :|
f/g/ | a2 e fec | efe efg | a2 e fec | BcB Bfg | a2 e fec | efg agf | edc dcB | ABA Afg |
a2 e fec | efe efg | a2 e fec | BcB Bfg | a2 e fec | efg agf | edc dcB | ABA A2 |]

